svgs/sharp-solid/boxing-glove.svg

<svg xmlns="http://www.w3.org/2000/svg" viewBox="0 0 448 512"><!--! Font Awesome Pro 6.6.0 by @fontawesome - https://fontawesome.com License - https://fontawesome.com/license (Commercial License) Copyright 2024 Fonticons, Inc. --><path d="M0 0L384 0l0 128-96 0-16 0 0 16 0 16-154.7 0L89.6 139.2l-12.8-9.6L57.6 155.2l12.8 9.6 32 24 4.3 3.2 5.3 0 160 0 0 80 0 16 16 0 48 0 16 0 0-32-16 0-32 0 0-64 0-32 80 0 48 0 16 0 0 128-96 96 0 128L32 512l0-128L0 352 0 0zM152.9 354.7l-13.3-8.9-17.8 26.6 13.3 8.9 28 18.7-28 18.7-13.3 8.9 17.8 26.6 13.3-8.9L192 419.2l39.1 26.1 13.3 8.9 17.8-26.6-13.3-8.9-28-18.7 28-18.7 13.3-8.9-17.8-26.6-13.3 8.9L192 380.8l-39.1-26.1z"/></svg>

<svg xmlns="http://www.w3.org/2000/svg" viewBox="0 0 448 512"><!--! Font Awesome Pro 6.4.2 by @fontawesome - https://fontawesome.com License - https://fontawesome.com/license (Commercial License) Copyright 2023 Fonticons, Inc. --><path d="M0 0H384V128H288 272v16 16H117.3L89.6 139.2l-12.8-9.6L57.6 155.2l12.8 9.6 32 24 4.3 3.2H112 272v80 16h16 48 16V256H336 304V192 160h80 48 16V288l-96 96V512H32V384L0 352V0zM152.9 354.7l-13.3-8.9-17.8 26.6 13.3 8.9 28 18.7-28 18.7-13.3 8.9 17.8 26.6 13.3-8.9L192 419.2l39.1 26.1 13.3 8.9 17.8-26.6-13.3-8.9-28-18.7 28-18.7 13.3-8.9-17.8-26.6-13.3 8.9L192 380.8l-39.1-26.1z"/></svg>
